public/images/icons/wiki/straal/sol.svg

<svg fill="none" height="300" stroke-width="5" width="300" xmlns="http://www.w3.org/2000/svg"><g stroke="#eee" stroke-width="5"><path d="m150 120-30 15 30 15 30-15z" fill="#eee" stroke-linecap="round" stroke-linejoin="round"/><path d="m60 75a0 120 0 0 0 0 120 30 15 0 0 0 30 15 120 0 0 0 0 120 0 30-15 0 0 0 30-15 0-120 0 0 0 0-120-30-15 0 0 0 -30-15-120 0 0 0 0 -120 0-30 15 0 0 0 -30 15m0 120a0 30 0 0 0 0 30 15 15 0 0 0 15 15 150 0 0 0 0 150 0 15-15 0 0 0 15-15 0-30 0 0 0 0-30m-45 30a30 0 0 0 0 30 0 15-15 0 0 0 15-15" fill="none" stroke-linecap="square"/></g></svg>

<svg xmlns="http://www.w3.org/2000/svg" baseProfile="full" version="1.1" width="300px" height="300px" style="fill: none; width: 300px; height: 300px; stroke-width: 5;"><path d="" style="stroke-width: 10; stroke-linecap: round; stroke-linejoin: round; stroke: rgb(68, 68, 68); fill: none;"></path><path d="M150,120 L150,120 L120,135 L150,150 L180,135 L150,120 " style="stroke-width: 5; stroke-linecap: round; stroke-linejoin: round; stroke: rgb(238, 238, 238); fill: rgb(238, 238, 238);"></path><path d="M60,75 A0,120 0 0,0 60,195 A30,15 0 0,0 90,210 A120,0 0 0,0 210,210 A30,-15 0 0,0 240,195 A0,-120 0 0,0 240,75 A-30,-15 0 0,0 210,60 A-120,0 0 0,0 90,60 A-30,15 0 0,0 60,75 M60,195 A0,30 0 0,0 60,225 A15,15 0 0,0 75,240 A150,0 0 0,0 225,240 A15,-15 0 0,0 240,225 A0,-30 0 0,0 240,195 M195,225 A30,0 0 0,0 225,225 A15,-15 0 0,0 240,210 " style="stroke-width: 5; stroke-linecap: square; stroke-linejoin: miter; stroke: rgb(238, 238, 238); fill: none;"></path></svg>
